X:108
T:Till the Tide Comes In
Z:Jack Campin, http://www.campin.me.uk/
S:Northumbrian Minstrelsy
M:C
L:1/8
K:G
  BA |GBd2 d2cB|Ac e2 e2 dc|BdgB Aedc|B2 G2 G2
  BA |GBd2 d2cB|Ac e2 e2 dc|BdgB Aedc|B2 G2 G2:|
(3def|gfgf gdBd|e2 d2 d2 ef|gfgf gdBd|c2 A2 A2
  BA |GBd2 d2cB|Ac e2 e2 dc|BdgB Aedc|B2 G2 G2:|

